X: 1
T: Frisk it   [G] DR 1756
%date 1756
B: Rutherford's Country Dances Vol 1, 1756
Z: village music project, Steve Mansfield July 2015
M: C|
L: 1/8
Q: 2/4=80
K: G
"A"|: B2cB A2BA | G2AF GD G,2 | (3BcB (3ABA (3GAG (3FGF | EAAF G2 G,2 :|
"B"|: GBAc Bdce | de2d/^c/ d2D2 | gb2a/g/ fa2g/f/ | edA^c d2D2 |
      B2cB A2BA | G2AF GD G,2 | (3BcB (3ABA (3GAG (3FGF | EAAF G2 G,2 :|
"C"|: g2Tag/a/ bgd2 | gdBG A/G/F/E/ D2 | g2ag/a/ bgdg | fe/d/ ed/c/ d2D2 :|
"D"|: GccB dBe2 | BA/B/ c/B/A/G/ A/G/F/E/ D2 | GccB dBeg | BA/B/ c/B/A/B/ G2G,2 :|]
%%begintext align
%% The 1st Cu. cast off, and turns .| Cast off again & turn :| Lead up
%% to ye top foot it and cast off .|. Right hand & left quite round
%% with ye 3d Cu. :||: Hands & cross quite round with ye 2d and 3d We. .||.
%% The same with the Men :|| Hay contrary sides .||. foot it
%% to your Partner and turn it out :|
%% [David Rutherford 1756]
%%endtext
